X:1
T: The Duchess of Richmond
C:Alexander Walker
R:Reel
Q: 232
K:E
M:4/4
L:1/8
|:f|e2 eB GE EG|Ac GB cF Fd|e2 eB GE EG|CF DB, E2 Ef|
e2 eB GE EG|Ac GB cF Fd|e2 eB GE EG|CF DB, E2 Eg|
bg eB cf fg|eg df eB GE|Ac GB cF FA|GE DF E2 EB|
e2 eB cf fg|zg df eB GE|Ac GB cf fa|ge df e2 e:|
